X: 4
T: My Dear Father the Buffalo
N: Derived from pawnee04.krn
O: Oklahoma, U.S.A.
N: from Pawnee Music by Frances Densmore, 1926
Z: transcribed to **kern format by David Huron, August 2000
C: Skidi and Chaui Bands, 1919
L: 1/8
M: 3/4
Q: 1/4=88
K: Db clef=bass
%%linebreak <none>
F F F F (E/ D) E/[M:2/4] | 
E> D D3/ !tenuto!C/ | 
D> DD2[M:3/4] | 
D D D F (E/ D) E/[M:2/4] | 
E> D D3/ !tenuto!C/ | 
D> D !fermata!D3/ F/[M:3/4] | 
E> E (D> B,) A,/< A,/ A,/ A,/ | 
E,2E, D, D, D,[M:2/4] | 
E, (E,/ D,/)E,2 | 
(3G, G, G,E,2 | 
D,/ D,/ D,/ D,/ D, E,/ D,/[M:3/4] | 
D,4-D,3/ :|]  



